img/clock.svg

<?xml version='1.0' encoding='utf-8'?>
<!DOCTYPE svg PUBLIC '-//W3C//DTD SVG 1.1//EN' 'http://www.w3.org/Graphics/SVG/1.1/DTD/svg11.dtd'>
<svg version="1.1" xmlns="http://www.w3.org/2000/svg" viewBox="0 0 512 512" xmlns:xlink="http://www.w3.org/1999/xlink" enable-background="new 0 0 512 512">
  <g>
    <g>
      <path d="m256,51.8c-112.6,0-204.2,91.6-204.2,204.2s91.6,204.2 204.2,204.2 204.2-91.6 204.2-204.2-91.6-204.2-204.2-204.2v-1.42109e-14zm0,449.2c-135.1,0-245-109.9-245-245s109.9-245 245-245 245,109.9 245,245-109.9,245-245,245z"/>
      <path d="m344.1,276.4h-88.1c-11.3,0-20.4-9.1-20.4-20.4v-157.8c0-11.3 9.1-20.4 20.4-20.4 11.3,0 20.4,9.1 20.4,20.4v137.4h67.7c11.3,0 20.4,9.1 20.4,20.4 5.68434e-14,11.3-9.1,20.4-20.4,20.4z"/>
    </g>
  </g>
</svg>

<?xml version="1.0" encoding="utf-8"?>
<!-- Generator: Adobe Illustrator 26.2.1, SVG Export Plug-In . SVG Version: 6.00 Build 0)  -->
<svg version="1.1" id="Layer_1" xmlns="http://www.w3.org/2000/svg" xmlns:xlink="http://www.w3.org/1999/xlink" x="0px" y="0px"
	 viewBox="0 0 512 512" style="enable-background:new 0 0 512 512;" xml:space="preserve">
<style type="text/css">
	.st0{fill:#B3B3B3;}
</style>
<g>
	<g>
		<path class="st0" d="M256,51.8C143.4,51.8,51.8,143.4,51.8,256S143.4,460.2,256,460.2S460.2,368.6,460.2,256S368.6,51.8,256,51.8
			C256,51.8,256,51.8,256,51.8z M256,501C120.9,501,11,391.1,11,256S120.9,11,256,11s245,109.9,245,245S391.1,501,256,501z"/>
		<path class="st0" d="M344.1,276.4H256c-11.3,0-20.4-9.1-20.4-20.4V98.2c0-11.3,9.1-20.4,20.4-20.4s20.4,9.1,20.4,20.4v137.4h67.7
			c11.3,0,20.4,9.1,20.4,20.4C364.5,267.3,355.4,276.4,344.1,276.4L344.1,276.4z"/>
	</g>
</g>
</svg>
